dist/svgs/unicons/line/hourglass.svg

<svg xmlns="http://www.w3.org/2000/svg" data-name="Layer 1" viewBox="0 0 24 24"><path d="M18.9917,21.002h-1V19.335a5.00057,5.00057,0,0,0-.29956-1.67773c-.01093-.02936-.0224-.05658-.03589-.08454a4.97694,4.97694,0,0,0-.66455-1.23675l-1.3999-1.86719a3.01933,3.01933,0,0,1-.6001-1.80078V11.6582a3.02108,3.02108,0,0,1,.87842-2.12109l.65722-.65723A4.94566,4.94566,0,0,0,17.92365,6.0415c.00054-.01391.008-.02551.008-.03955l-.00281-.01373a5.01836,5.01836,0,0,0,.06287-.64349V3.002h1a1,1,0,0,0,0-2h-14a1,1,0,0,0,0,2h1V5.34473a5.01836,5.01836,0,0,0,.06287.64349L6.05176,6.002c0,.014.00744.02564.008.03955a4.94571,4.94571,0,0,0,1.3963,2.83838l.65723.65723A3.02108,3.02108,0,0,1,8.9917,11.6582V12.668a3.02212,3.02212,0,0,1-.59961,1.80078L6.99121,16.33594a4.98221,4.98221,0,0,0-.66437,1.23718c-.0133.02771-.02472.05463-.03552.08368A5.00309,5.00309,0,0,0,5.9917,19.335v1.667h-1a1,1,0,0,0,0,2h14a1,1,0,0,0,0-2Zm-11-16v-2h8v2Zm.87842,2.46387A2.97036,2.97036,0,0,1,8.49323,7.002h6.99694a2.97094,2.97094,0,0,1-.37689.46387l-.65723.65723a4.9603,4.9603,0,0,0-1.42187,2.8789h-2.085A4.96025,4.96025,0,0,0,9.52734,8.123ZM9.99219,15.668a5.03688,5.03688,0,0,0,.98828-2.666h2.02246a5.03332,5.03332,0,0,0,.98877,2.666l1.00012,1.334H8.99133Zm5.99951,5.334h-8V19.335a2.954,2.954,0,0,1,.02722-.333h7.94556a2.954,2.954,0,0,1,.02722.333Z"/></svg>

<svg xmlns="http://www.w3.org/2000/svg" data-name="Layer 1" viewBox="0 0 24 24"><path d="M18.992 21.002h-1v-1.667a5 5 0 00-.3-1.678.969.969 0 00-.036-.084 4.977 4.977 0 00-.664-1.237l-1.4-1.867a3.02 3.02 0 01-.6-1.801v-1.01a3.021 3.021 0 01.878-2.12l.657-.658a4.946 4.946 0 001.397-2.839c0-.013.008-.025.008-.04l-.003-.013a5.018 5.018 0 00.063-.643V3.002h1a1 1 0 000-2h-14a1 1 0 000 2h1v2.343a5.018 5.018 0 00.063.643l-.003.014c0 .014.007.026.008.04A4.946 4.946 0 007.456 8.88l.657.657a3.021 3.021 0 01.879 2.121v1.01a3.022 3.022 0 01-.6 1.8l-1.4 1.868a4.982 4.982 0 00-.665 1.237.976.976 0 00-.036.084 5.003 5.003 0 00-.3 1.678v1.667h-1a1 1 0 000 2h14a1 1 0 000-2zm-11-16v-2h8v2zm.878 2.464a2.97 2.97 0 01-.377-.464h6.997a2.97 2.97 0 01-.377.464l-.657.657a4.96 4.96 0 00-1.422 2.879H10.95a4.96 4.96 0 00-1.422-2.879zm1.122 8.202a5.037 5.037 0 00.988-2.666h2.023a5.033 5.033 0 00.989 2.666l1 1.334h-6zm6 5.334h-8v-1.667a2.954 2.954 0 01.027-.333h7.945a2.954 2.954 0 01.028.333z"/></svg>
